src/images/StepLogo.svg

<svg viewBox="0 0 250 110" xmlns="http://www.w3.org/2000/svg" xml:space="preserve" style="fill-rule:evenodd;clip-rule:evenodd;stroke-linejoin:round;stroke-miterlimit:2"><path d="M30.7 111.5c-2.6-1.9-2.1-5.2 1.1-6.7 1.9-.9 3.1-2.7 4.1-5.7 1.3-4 1.2-5.1-.6-11-1.2-3.6-4.2-11.2-6.8-16.9-3.2-7-4.9-12.1-5.2-16.1-1.2-12.6 6.1-23.1 16-23.1 6 0 9.4 6.4 4 7.5-6.3 1.4-9.2 5-10 12.7-.5 5.4-.3 6.3 6.1 19.8 8 17 9.3 23.9 5.7 31.2-3.3 6.7-10.8 11-14.4 8.3ZM145.4 109.6c-1.8-1.4-1.9-2.7-1.6-33.1.3-28.3.1-31.9-1.3-33.5-.9-1-1.5-2.7-1.3-3.7.3-1.5 1.3-1.8 6.1-1.6 12.8.4 24.7 9.9 24.7 19.8 0 7.4-9.9 22.3-16.8 25.2l-3.3 1.4.3 11.2c.2 14.4-1.5 18.1-6.8 14.3Zm15-45.6c4.7-8.6 2.5-14.6-5.8-16.6l-2.9-.7.6 4.8c.4 2.6.7 8.6.7 13.3v8.5l2.4-2.2c1.3-1.2 3.5-4.4 5-7.1ZM72.4 102.8l-2.7-3.3.8-22.5c.4-12.4.8-24.5.9-27l.1-4.5-7 .3c-7.7.2-12-1-13.6-4-1.5-2.9-.3-3.6 8.1-4.8 4.1-.6 9-1.6 10.9-2.2 1.9-.6 6.8-1 10.9-.9 4.2.1 10.6-.5 14.6-1.5 6.9-1.6 7.4-1.6 9.9.1 3.2 2.1 3.3 2.9.8 5.4C104.4 39.6 90 43 84.4 43c-1.4 0-2.4.8-2.8 2.3-.4 1.2-.9 14.4-1.2 29.2-.3 14.9-.7 28-1 29.3-.6 3.2-3.7 2.8-7-1Z" style="fill:#fff;fill-rule:nonzero" transform="translate(-27.806 -26.088) scale(1.20006)"/><path d="M114.1 103.9c-12.6-1.5-15.3-4.6-15.7-18.1-.1-5-.7-9.5-1.3-10.1-1.6-1.6-1.3-3 .9-5 1.5-1.2 2-2.9 2-6.5 0-3.9-.4-4.9-2.2-5.7-2.7-1.2-3.6-5.6-1.5-7.3 2.2-1.9 18.8-7.9 25.3-9.3 7.6-1.5 12.4-.1 12.4 3.6 0 2.4-2.8 3.6-18.2 8-4.3 1.2-5.8 2.1-5.8 3.4 0 1-.3 4-.7 6.6l-.6 4.8 8.6-.7c7.9-.6 8.8-.5 10.7 1.4 2.1 2.1 2.1 2.3.4 4.1-1.3 1.4-3.2 1.9-7.3 2-9.5.2-11.5 1-12.8 4.9-.7 1.9-1.2 5.6-1.2 8.2-.1 4 .3 5 2.4 6.4 3.3 2.2 14.4 3 17.5 1.4 2.1-1.1 2.6-1 4.2 1 2.2 2.7 2.3 4.4.2 6.4-1.7 1.8-5.5 1.9-17.3.5Z" style="fill:#fff;fill-rule:nonzero" transform="translate(-27.806 -26.088) scale(1.20006)"/><g><path d="M177 111.2c-1.9-.9-4.3-3.2-5.4-5.1-1.9-3.3-1.9-3.4 0-8.9C173.5 91.6 184.4 74 186 74c.4 0 1.3-1.3 1.8-3 .9-2.3.7-3.3-.7-5.2-3.5-4.5-5.5-17.7-3.5-22.7l1.4-3.4 8.9.7c5.8.4 9.2.3 9.6-.4 2.9-4.8 16.9 6 16.7 12.9 0 1.9.8 3.6 2.4 5 1.3 1.1 2.4 2.5 2.4 3 0 1.6-2.4 6.5-3.6 7.6-.7.6-1.7 2.6-2.3 4.5-1.3 4-8.4 12-10.6 12-.8 0-1.5.6-1.5 1.4 0 .8-.6 1.6-1.3 1.9-.8.3-2.1 2-3.1 3.9-6 12.1-9 15.9-14.8 18.9-4.6 2.3-6.4 2.4-10.8.1ZM227.6 55.7c-2.2-1.6-1.8-5 .6-5.5s4.4 3.6 2.6 5.4c-1.2 1.2-1.7 1.2-3.2.1ZM224.1 46.6c-.9-1.1-.8-1.8.4-3 2.1-2 2.9-2 4.6 0 1.1 1.4 1 1.8-.6 3-2.4 1.7-3 1.7-4.4 0ZM217.2 40.8c-1.9-1.9-1.4-5.6.9-6.8 1.6-.9 2.6-.8 4.5.5 2.8 1.8 3.1 3.7.8 5.9-1.8 1.9-4.5 2.1-6.2.4ZM183.6 35.9c-1.8-1.5-2.6-3-2.6-5.3 0-7.1 9.3-10.3 14.6-5.1 2.4 2.4 2.4 2.6.9 6.2-.9 2.1-2.3 4.4-3.2 5.1-2.5 1.8-6.7 1.5-9.7-.9ZM207.2 35.2c-3.4-.5-4.7-3.8-2.7-6.8 1.8-2.8 4.1-3.1 7.3-.8 4.6 3.2 1.4 8.6-4.6 7.6Z" style="fill:#fff;fill-rule:nonzero" transform="translate(-27.806 -26.088) scale(1.20006)"/></g></svg>

<?xml version="1.0" encoding="UTF-8" standalone="no"?>
<!DOCTYPE svg PUBLIC "-//W3C//DTD SVG 1.1//EN" "http://www.w3.org/Graphics/SVG/1.1/DTD/svg11.dtd">
<svg width="100%" height="100%" viewBox="0 0 250 110" version="1.1" xmlns="http://www.w3.org/2000/svg" xmlns:xlink="http://www.w3.org/1999/xlink" xml:space="preserve" xmlns:serif="http://www.serif.com/" style="fill-rule:evenodd;clip-rule:evenodd;stroke-linejoin:round;stroke-miterlimit:2;">
    <g transform="matrix(1,0,0,1,0,-21.5)">
        <g transform="matrix(1.20006,0,0,1.20006,-27.8063,-4.5878)">
            <path d="M30.7,111.5C28.1,109.6 28.6,106.3 31.8,104.8C33.7,103.9 34.9,102.1 35.9,99.1C37.2,95.1 37.1,94 35.3,88.1C34.1,84.5 31.1,76.9 28.5,71.2C25.3,64.2 23.6,59.1 23.3,55.1C22.1,42.5 29.4,32 39.3,32C45.3,32 48.7,38.4 43.3,39.5C37,40.9 34.1,44.5 33.3,52.2C32.8,57.6 33,58.5 39.4,72C47.4,89 48.7,95.9 45.1,103.2C41.8,109.9 34.3,114.2 30.7,111.5Z" style="fill:white;fill-rule:nonzero;"/>
        </g>
        <g transform="matrix(1.20006,0,0,1.20006,-27.8063,-4.5878)">
            <path d="M145.4,109.6C143.6,108.2 143.5,106.9 143.8,76.5C144.1,48.2 143.9,44.6 142.5,43C141.6,42 141,40.3 141.2,39.3C141.5,37.8 142.5,37.5 147.3,37.7C160.1,38.1 172,47.6 172,57.5C172,64.9 162.1,79.8 155.2,82.7L151.9,84.1L152.2,95.3C152.4,109.7 150.7,113.4 145.4,109.6ZM160.4,64C165.1,55.4 162.9,49.4 154.6,47.4L151.7,46.7L152.3,51.5C152.7,54.1 153,60.1 153,64.8L153,73.3L155.4,71.1C156.7,69.9 158.9,66.7 160.4,64Z" style="fill:white;fill-rule:nonzero;"/>
        </g>
        <g transform="matrix(1.20006,0,0,1.20006,-27.8063,-4.5878)">
            <path d="M72.4,102.8L69.7,99.5L70.5,77C70.9,64.6 71.3,52.5 71.4,50L71.5,45.5L64.5,45.8C56.8,46 52.5,44.8 50.9,41.8C49.4,38.9 50.6,38.2 59,37C63.1,36.4 68,35.4 69.9,34.8C71.8,34.2 76.7,33.8 80.8,33.9C85,34 91.4,33.4 95.4,32.4C102.3,30.8 102.8,30.8 105.3,32.5C108.5,34.6 108.6,35.4 106.1,37.9C104.4,39.6 90,43 84.4,43C83,43 82,43.8 81.6,45.3C81.2,46.5 80.7,59.7 80.4,74.5C80.1,89.4 79.7,102.5 79.4,103.8C78.8,107 75.7,106.6 72.4,102.8Z" style="fill:white;fill-rule:nonzero;"/>
        </g>
        <g transform="matrix(1.20006,0,0,1.20006,-27.8063,-4.5878)">
            <path d="M114.1,103.9C101.5,102.4 98.8,99.3 98.4,85.8C98.3,80.8 97.7,76.3 97.1,75.7C95.5,74.1 95.8,72.7 98,70.7C99.5,69.5 100,67.8 100,64.2C100,60.3 99.6,59.3 97.8,58.5C95.1,57.3 94.2,52.9 96.3,51.2C98.5,49.3 115.1,43.3 121.6,41.9C129.2,40.4 134,41.8 134,45.5C134,47.9 131.2,49.1 115.8,53.5C111.5,54.7 110,55.6 110,56.9C110,57.9 109.7,60.9 109.3,63.5L108.7,68.3L117.3,67.6C125.2,67 126.1,67.1 128,69C130.1,71.1 130.1,71.3 128.4,73.1C127.1,74.5 125.2,75 121.1,75.1C111.6,75.3 109.6,76.1 108.3,80C107.6,81.9 107.1,85.6 107.1,88.2C107,92.2 107.4,93.2 109.5,94.6C112.8,96.8 123.9,97.6 127,96C129.1,94.9 129.6,95 131.2,97C133.4,99.7 133.5,101.4 131.4,103.4C129.7,105.2 125.9,105.3 114.1,103.9Z" style="fill:white;fill-rule:nonzero;"/>
        </g>
    </g>
    <g transform="matrix(1,0,0,1,0,-21.5)">
        <g transform="matrix(1.20006,0,0,1.20006,-27.8063,-4.5878)">
            <path d="M177,111.2C175.1,110.3 172.7,108 171.6,106.1C169.7,102.8 169.7,102.7 171.6,97.2C173.5,91.6 184.4,74 186,74C186.4,74 187.3,72.7 187.8,71C188.7,68.7 188.5,67.7 187.1,65.8C183.6,61.3 181.6,48.1 183.6,43.1L185,39.7L193.9,40.4C199.7,40.8 203.1,40.7 203.5,40C206.4,35.2 220.4,46 220.2,52.9C220.2,54.8 221,56.5 222.6,57.9C223.9,59 225,60.4 225,60.9C225,62.5 222.6,67.4 221.4,68.5C220.7,69.1 219.7,71.1 219.1,73C217.8,77 210.7,85 208.5,85C207.7,85 207,85.6 207,86.4C207,87.2 206.4,88 205.7,88.3C204.9,88.6 203.6,90.3 202.6,92.2C196.6,104.3 193.6,108.1 187.8,111.1C183.2,113.4 181.4,113.5 177,111.2Z" style="fill:white;fill-rule:nonzero;"/>
        </g>
        <g transform="matrix(1.20006,0,0,1.20006,-27.8063,-4.5878)">
            <path d="M227.6,55.7C225.4,54.1 225.8,50.7 228.2,50.2C230.6,49.7 232.6,53.8 230.8,55.6C229.6,56.8 229.1,56.8 227.6,55.7Z" style="fill:white;fill-rule:nonzero;"/>
        </g>
        <g transform="matrix(1.20006,0,0,1.20006,-27.8063,-4.5878)">
            <path d="M224.1,46.6C223.2,45.5 223.3,44.8 224.5,43.6C226.6,41.6 227.4,41.6 229.1,43.6C230.2,45 230.1,45.4 228.5,46.6C226.1,48.3 225.5,48.3 224.1,46.6Z" style="fill:white;fill-rule:nonzero;"/>
        </g>
        <g transform="matrix(1.20006,0,0,1.20006,-27.8063,-4.5878)">
            <path d="M217.2,40.8C215.3,38.9 215.8,35.2 218.1,34C219.7,33.1 220.7,33.2 222.6,34.5C225.4,36.3 225.7,38.2 223.4,40.4C221.6,42.3 218.9,42.5 217.2,40.8Z" style="fill:white;fill-rule:nonzero;"/>
        </g>
        <g transform="matrix(1.20006,0,0,1.20006,-27.8063,-4.5878)">
            <path d="M183.6,35.9C181.8,34.4 181,32.9 181,30.6C181,23.5 190.3,20.3 195.6,25.5C198,27.9 198,28.1 196.5,31.7C195.6,33.8 194.2,36.1 193.3,36.8C190.8,38.6 186.6,38.3 183.6,35.9Z" style="fill:white;fill-rule:nonzero;"/>
        </g>
        <g transform="matrix(1.20006,0,0,1.20006,-27.8063,-4.5878)">
            <path d="M207.2,35.2C203.8,34.7 202.5,31.4 204.5,28.4C206.3,25.6 208.6,25.3 211.8,27.6C216.4,30.8 213.2,36.2 207.2,35.2Z" style="fill:white;fill-rule:nonzero;"/>
        </g>
    </g>
</svg>
